icon/lg/facebook.svg

<?xml version="1.0" encoding="UTF-8"?>
<svg viewBox="0 0 256 256" version="1.1" xmlns="http://www.w3.org/2000/svg" preserveAspectRatio="xMidYMid" height="1em" width="1em">
  <g>
    <path d="M256,128 C256,57.3075 198.6925,0 128,0 C57.3075,0 0,57.3075 0,128 C0,191.8885 46.80775,244.8425 108,254.445 L108,165 L75.5,165 L75.5,128 L108,128 L108,99.8 C108,67.72 127.1095,50 156.3475,50 C170.35175,50 185,52.5 185,52.5 L185,84 L168.8595,84 C152.95875,84 148,93.86675 148,103.98925 L148,128 L183.5,128 L177.825,165 L148,165 L148,254.445 C209.19225,244.8425 256,191.8885 256,128" fill="#1877F2"/>
    <path d="M177.825,165 L183.5,128 L148,128 L148,103.98925 C148,93.86675 152.95875,84 168.8595,84 L185,84 L185,52.5 C185,52.5 170.35175,50 156.3475,50 C127.1095,50 108,67.72 108,99.8 L108,128 L75.5,128 L75.5,165 L108,165 L108,254.445 C114.51675,255.4675 121.196,256 128,256 C134.804,256 141.48325,255.4675 148,254.445 L148,165 L177.825,165" fill="#FFFFFF"/>
  </g>
</svg>

<svg width="256" height="256" xmlns="http://www.w3.org/2000/svg" preserveAspectRatio="xMidYMid"><path d="M256 128C256 57.308 198.692 0 128 0 57.308 0 0 57.307 0 128c0 63.888 46.808 116.843 108 126.445V165H75.5v-37H108V99.8c0-32.08 19.11-49.8 48.347-49.8C170.352 50 185 52.5 185 52.5V84h-16.14C152.958 84 148 93.867 148 103.99V128h35.5l-5.675 37H148v89.445c61.192-9.602 108-62.556 108-126.445" fill="#1877F2"/><path d="m177.825 165 5.675-37H148v-24.01C148 93.866 152.959 84 168.86 84H185V52.5S170.352 50 156.347 50C127.11 50 108 67.72 108 99.8V128H75.5v37H108v89.445A128.959 128.959 0 0 0 128 256c6.804 0 13.483-.532 20-1.555V165h29.825" fill="#FFF"/></svg>
